svg/u1f6e5.svg

<svg viewBox="0 0 128 128" xmlns="http://www.w3.org/2000/svg">
  <defs/>
  <path d="M109.76,96.85 C111.21,96.14 113.63,94.64 117.28,94.79 C122.06,94.99 123.86,96.67 124.43,97.72 C124.99,98.77 124.75,105.61 123.77,107.17 C122.78,108.73 119.91,113.27 119.91,113.27 L123.62,115.39 C123.85,115.52 123.99,115.78 123.97,116.06 L123.86,117.96 C123.84,118.35 123.51,118.65 123.13,118.63 L119.92,118.44 L119.82,125.32 C119.81,125.74 119.36,125.98 119.03,125.75 L113.82,122.09 C113.69,122 113.6,121.84 113.6,121.67 L113.37,112.33 L110.73,111.68 C110.71,111.68 108.31,97.56 109.76,96.85 Z" fill="#455A64"/>
  <path d="M123.54,98.48 C123.86,98.19 124.08,97.81 124.21,97.39 C123.46,96.35 121.58,94.97 117.28,94.8 C113.63,94.65 111.22,96.15 109.76,96.86 C109.59,96.94 109.46,97.15 109.36,97.44 C109.39,97.48 109.4,97.52 109.43,97.56 C109.99,98.37 110.7,98.71 111.67,98.66 C112.65,98.6 113.61,98.31 114.6,98.24 C115.66,98.16 116.72,98.22 117.76,98.41 C118.02,98.46 118.27,98.51 118.53,98.57 C119.38,98.78 120.21,99.08 121.08,99.16 C121.95,99.23 122.89,99.07 123.54,98.48 Z" fill="#546E7A"/>
  <path d="M66.228,58.276 L65.798,65.946 Q65.77,66.445 65.507,66.681 Q65.243,66.916 64.744,66.888 Q64.245,66.86 64.009,66.597 Q63.774,66.333 63.802,65.834 L64.232,58.164 Q64.288,57.166 65.286,57.222 Q66.284,57.278 66.228,58.276 Z" fill="#94D1E0"/>
  <path d="M72.558,58.677 L72.138,66.057 Q72.082,67.055 71.083,66.998 Q70.085,66.942 70.142,65.943 L70.562,58.563 Q70.59,58.064 70.854,57.829 Q71.118,57.593 71.617,57.622 Q72.615,57.678 72.558,58.677 Z" fill="#94D1E0"/>
  <path d="M56.572,65.743 L56.842,61.003 Q56.935,59.295 57.975,58.117 Q59.109,56.833 60.663,56.932 L80.203,58.162 Q81.201,58.225 81.138,59.223 Q81.107,59.722 80.841,59.956 Q80.576,60.189 80.077,60.158 L60.537,58.928 Q59.96,58.891 59.475,59.441 Q58.894,60.098 58.838,61.117 L58.568,65.857 Q58.512,66.855 57.513,66.798 Q56.515,66.742 56.572,65.743 Z" fill="#94D1E0"/>
  <path d="M42.59,86.39 L70.49,89.26 L70.49,65.87 L56.48,65.87 Z" fill="#C9E3E6"/>
  <path d="M92.55,72.92 C92.55,72.92 95.83,73.09 97.72,71.69 C99.61,70.29 99.28,68.12 98.65,68.06 L70.49,65.86 L58.86,84.9 L43.68,84.77 L42.59,86.39 L99.68,93.87 L92.55,72.92 Z" fill="#94D1E0"/>
  <path d="M56.48,69.3 L64.8,69.3 L57.56,81.42 L49.19,81.42 Z" fill="#82AEC0"/>
  <path d="M78.17,71.05 L73.25,70.63 C72.58,70.56 71.92,70.94 71.53,71.64 L66.64,80.57 C66.23,81.33 66.86,82.23 67.71,82.09 L78.12,80.41 L78.17,71.05 Z" fill="#2F7889"/>
  <path d="M80.17,71.22 L80.13,80.08 L88.1,78.79 C89.05,78.64 89.75,77.82 89.75,76.86 L89.75,72.04 L80.17,71.22 Z" fill="#2F7889"/>
  <path d="M35.847,80.974 L4.617,77.414 Q4.12,77.357 3.9,77.08 Q3.68,76.804 3.736,76.307 Q3.85,75.313 4.843,75.426 L36.073,78.986 Q37.067,79.1 36.954,80.093 Q36.897,80.59 36.62,80.81 Q36.344,81.03 35.847,80.974 Z" fill="#94D1E0"/>
  <path d="M8.068,77.042 Q7.418,81.259 8.41,84.289 Q8.722,85.239 7.771,85.55 Q7.296,85.706 6.981,85.546 Q6.665,85.386 6.51,84.911 Q5.369,81.427 6.092,76.738 Q6.168,76.243 6.453,76.034 Q6.738,75.825 7.232,75.902 Q8.221,76.054 8.068,77.042 Z" fill="#94D1E0"/>
  <path d="M32.837,79.589 Q32.563,83.064 33.766,86.012 Q34.144,86.938 33.218,87.316 Q32.755,87.505 32.429,87.368 Q32.103,87.231 31.914,86.768 Q30.532,83.38 30.843,79.432 Q30.882,78.933 31.151,78.703 Q31.42,78.474 31.918,78.513 Q32.915,78.592 32.837,79.589 Z" fill="#94D1E0"/>
  <path d="M20.67,78.13 Q20.67,81.96 21.924,84.795 Q22.329,85.71 21.415,86.114 Q20.957,86.317 20.628,86.189 Q20.298,86.062 20.096,85.605 Q18.67,82.383 18.67,78.13 Q18.67,77.13 19.67,77.13 Q20.67,77.13 20.67,78.13 Z" fill="#94D1E0"/>
  <path d="M112.26,109.44 L110.09,93.95 C110.06,93.74 109.89,93.58 109.69,93.54 C41.8,83.56 6.59,83.81 6.59,83.81 C6.15,83.75 5.81,84.32 5.99,84.84 C7.4,89.06 11.9,96.67 18.77,104.74 C28.71,116.42 36.35,118.71 51.58,119.98 L107.8,119.76 L111.25,116.02 L114.18,115.96 C115.35,115.94 116.33,114.75 116.42,113.24 L116.46,112.58 C116.55,111.01 115.64,109.68 114.42,109.59 L112.26,109.44 Z" fill="#C9E3E6"/>
  <path d="M43.98,114.21 C31.75,113.12 26.88,112.61 26.88,112.61 C32.72,117.93 40.54,119.99 51.56,119.99 L107.78,119.77 L108.97,118.48 L109.84,117.33 C107.55,116.43 55.24,115.22 43.98,114.21 Z" fill="#82AEC0"/>
  <path d="M110.71,98.29 C57.57,92.01 9.13,91.4 9.13,91.4 L6.7,86.72 C6.7,86.72 56.47,88.81 110.35,95.88 L110.71,98.29 Z" fill="#1565C0"/>
  <path d="M111.32,102.75 C65.21,97.64 13.86,98.44 13.86,98.44 L10.65,93.87 C10.65,93.87 52.44,94.78 110.96,100.2 L111.32,102.75 Z" fill="#F44336"/>
</svg>

<svg viewBox="0 0 128 128" xmlns="http://www.w3.org/2000/svg">
  <g>
    <path d="M109.76,96.85c1.45-0.71,3.87-2.21,7.52-2.06c4.78,0.2,6.58,1.88,7.15,2.93 c0.56,1.05,0.32,7.89-0.66,9.45c-0.99,1.56-3.86,6.1-3.86,6.1l3.71,2.12c0.23,0.13,0.37,0.39,0.35,0.67l-0.11,1.9 c-0.02,0.39-0.35,0.69-0.73,0.67l-3.21-0.19l-0.1,6.88c-0.01,0.42-0.46,0.66-0.79,0.43l-5.21-3.66c-0.13-0.09-0.22-0.25-0.22-0.42 l-0.23-9.34l-2.64-0.65C110.71,111.68,108.31,97.56,109.76,96.85z" fill="#455A64"/>
    <path d="M123.54,98.48c0.32-0.29,0.54-0.67,0.67-1.09c-0.75-1.04-2.63-2.42-6.93-2.59 c-3.65-0.15-6.06,1.35-7.52,2.06c-0.17,0.08-0.3,0.29-0.4,0.58c0.03,0.04,0.04,0.08,0.07,0.12c0.56,0.81,1.27,1.15,2.24,1.1 c0.98-0.06,1.94-0.35,2.93-0.42c1.06-0.08,2.12-0.02,3.16,0.17c0.26,0.05,0.51,0.1,0.77,0.16c0.85,0.21,1.68,0.51,2.55,0.59 C121.95,99.23,122.89,99.07,123.54,98.48z" fill="#546E7A"/>
    <line fill="none" stroke="#94D1E0" stroke-width="2" stroke-linecap="round" stroke-miterlimit="10" x1="65.23" x2="64.8" y1="58.22" y2="65.89"/>
    <line fill="none" stroke="#94D1E0" stroke-width="2" stroke-linecap="round" stroke-miterlimit="10" x1="71.56" x2="71.14" y1="58.62" y2="66"/>
    <path d="M57.57,65.8l0.27-4.74 c0.1-1.82,1.34-3.22,2.76-3.13l19.54,1.23" fill="none" stroke="#94D1E0" stroke-width="2" stroke-linecap="round" stroke-miterlimit="10"/>
    <polygon points="42.59,86.39 70.49,89.26 70.49,65.87 56.48,65.87 " fill="#C9E3E6"/>
    <path d="M92.55,72.92c0,0,3.28,0.17,5.17-1.23s1.56-3.57,0.93-3.63l-28.16-2.2L58.86,84.9l-15.18-0.13 l-1.09,1.62l57.09,7.48L92.55,72.92z" fill="#94D1E0"/>
    <polygon points="56.48,69.3 64.8,69.3 57.56,81.42 49.19,81.42 " fill="#82AEC0"/>
    <path d="M78.17,71.05l-4.92-0.42c-0.67-0.07-1.33,0.31-1.72,1.01l-4.89,8.93c-0.41,0.76,0.22,1.66,1.07,1.52 l10.41-1.68L78.17,71.05z" fill="#2F7889"/>
    <path d="M80.17,71.22l-0.04,8.86l7.97-1.29c0.95-0.15,1.65-0.97,1.65-1.93v-4.82L80.17,71.22z" fill="#2F7889"/>
    <line fill="none" stroke="#94D1E0" stroke-width="2" stroke-linecap="round" stroke-miterlimit="10" x1="35.96" x2="4.73" y1="79.98" y2="76.42"/>
    <path d="M7.08,76.89 c-0.37,2.4-0.36,5.45,0.38,7.71" fill="none" stroke="#94D1E0" stroke-width="2" stroke-linecap="round" stroke-miterlimit="10"/>
    <path d="M31.84,79.51 c-0.2,2.54,0.18,4.87,1,6.88" fill="none" stroke="#94D1E0" stroke-width="2" stroke-linecap="round" stroke-miterlimit="10"/>
    <path d="M19.67,78.13 c0,1.99,0.34,4.81,1.34,7.07" fill="none" stroke="#94D1E0" stroke-width="2" stroke-linecap="round" stroke-miterlimit="10"/>
    <path d="M112.26,109.44l-2.17-15.49c-0.03-0.21-0.2-0.37-0.4-0.41c-67.89-9.98-103.1-9.73-103.1-9.73 c-0.44-0.06-0.78,0.51-0.6,1.03c1.41,4.22,5.91,11.83,12.78,19.9c9.94,11.68,17.58,13.97,32.81,15.24l56.22-0.22l3.45-3.74 l2.93-0.06c1.17-0.02,2.15-1.21,2.24-2.72l0.04-0.66c0.09-1.57-0.82-2.9-2.04-2.99L112.26,109.44z" fill="#C9E3E6"/>
    <path d="M43.98,114.21c-12.23-1.09-17.1-1.6-17.1-1.6c5.84,5.32,13.66,7.38,24.68,7.38l56.22-0.22l1.19-1.29 l0.87-1.15C107.55,116.43,55.24,115.22,43.98,114.21z" fill="#82AEC0"/>
    <path d="M110.71,98.29C57.57,92.01,9.13,91.4,9.13,91.4l-2.43-4.68c0,0,49.77,2.09,103.65,9.16L110.71,98.29 z" fill="#1565C0"/>
    <path d="M111.32,102.75c-46.11-5.11-97.46-4.31-97.46-4.31l-3.21-4.57c0,0,41.79,0.91,100.31,6.33 L111.32,102.75z" fill="#F44336"/>
  </g>
</svg>
